public/assets/logos/software/poimndrs.svg

<svg fill="none" height="10" viewBox="0 0 10 10" width="10" xmlns="http://www.w3.org/2000/svg"><path d="m0 0h10v10h-10z" fill="#000"/><path clip-rule="evenodd" d="m7.00004 3v2.6h-1.2v-1.4h-1.40003v-1.2h1.40003 1.19997zm-1.39999 2.6v-1.2h-1.2v1.2zm0 .2v1.2h-1.2v-1.2zm-1.39999-.2v-1.2h-1.2v1.2z" fill="#d9d9d9" fill-rule="evenodd"/></svg>

<svg width="10" height="10" viewBox="0 0 10 10" fill="none" xmlns="http://www.w3.org/2000/svg">
<rect width="10" height="10" fill="black"/>
<path fill-rule="evenodd" clip-rule="evenodd" d="M7.00004 3V5.6L5.80004 5.6V4.2H4.40001V3L5.80004 3L7.00001 3H7.00004ZM5.60005 5.6V4.4H4.40005V5.6H5.60005ZM5.60005 5.8V7H4.40005V5.8H5.60005ZM4.20006 5.6V4.4H3.00006L3.00006 5.6H4.20006Z" fill="#D9D9D9"/>
</svg>
